X: 25313
T: Manchester Galop
R: barndance
M: 4/4
K: Gmajor
(3def|"G"g2g2"B7"f2f2|"C"e>f (3gfe "G"d2>d2|"D7"c>d e>c "G"B>c d>B|"D7"A>c B>A G2 (3def|
"G"g2g2 "B7"f2f2|"C"e2e2 "G"d2>B2|"D7"c>e d>c "G"B>d c>B|"D7"A>c B>A "G"G2>G2||
"G"(3BdB G>d (3BdB (3GBd|"C"g>g f>e "G"d2>d2|"G"(3BdB G>d (3BdB G>B|"A7"A>G A>B "D"A2>d2|
"G"(3BdB G>d (3BdB (3GBd|"C"g>g f>e "G"d2>d2|"D7"c>d e>c "G"B>c d>B|"D7"A>c B>A "G"G3||

